X: 4230
T: BROWN EYED KATE
R: Jig
%R: jig
B: James Kerr "Merry Melodies" v.4 p.25 #230
Z: 2016 John Chambers <jc:trillian.mit.edu>
N: The final e in each strain would be better as an initial pickup note.
M: 6/8
L: 1/8
K: A
|:\
cBc Ace | f3 efg | a2e edc | cBB B2d |\
cBc Ace | f3 efg | a2e dcB | A3- A2e :|
|:\
ece ece | agf agf | efe edc | cBB Bcd |\
ece ece | agf agf | efe dcB | A3 A2e :|

%%sep 1 1 500
%%sep 1 1 500

